Papirus/22x22/actions/labplot-zoom-out-y.svg

<?xml version="1.0" encoding="UTF-8" standalone="no"?>
<!--Created with Inkscape (http://www.inkscape.org/)-->
<svg xmlns:dc="http://purl.org/dc/elements/1.1/" xmlns:cc="http://creativecommons.org/ns#" xmlns:rdf="http://www.w3.org/1999/02/22-rdf-syntax-ns#" xmlns:svg="http://www.w3.org/2000/svg" xmlns="http://www.w3.org/2000/svg" xmlns:sodipodi="http://sodipodi.sourceforge.net/DTD/sodipodi-0.dtd" xmlns:inkscape="http://www.inkscape.org/namespaces/inkscape" width="22" height="22" id="svg4355" version="1.1" inkscape:version="0.91 r13725" sodipodi:docname="labplot-zoom-out-y.svg">
    <defs id="defs4357">
        <style type="text/css" id="current-color-scheme">
            .ColorScheme-Text { color:#4d4d4d; } .ColorScheme-Background { color:#eff0f1; } .ColorScheme-Highlight { color:#3daee9; } .ColorScheme-ViewText { color:#31363b; } .ColorScheme-ViewBackground { color:#fcfcfc; } .ColorScheme-ViewHover { color:#93cee9; } .ColorScheme-ViewFocus{ color:#3daee9; } .ColorScheme-ButtonText { color:#31363b; } .ColorScheme-ButtonBackground { color:#eff0f1; } .ColorScheme-ButtonHover { color:#93cee9; } .ColorScheme-ButtonFocus{ color:#3daee9; }
        </style>
    </defs>
    <sodipodi:namedview id="base" pagecolor="#000000" bordercolor="#666666" borderopacity="1.0" inkscape:pageopacity="0.0" inkscape:pageshadow="2" inkscape:zoom="24.81" inkscape:cx="7.304842" inkscape:cy="11" inkscape:document-units="px" inkscape:current-layer="layer1" showgrid="false" width="0px" height="0px" fit-margin-top="0" fit-margin-left="0" fit-margin-right="0" fit-margin-bottom="0" inkscape:window-width="1600" inkscape:window-height="847" inkscape:window-x="0" inkscape:window-y="30" inkscape:window-maximized="1" inkscape:showpageshadow="false" showguides="false">
        <inkscape:grid type="xygrid" id="grid4112"/>
        <sodipodi:guide position="2.0000011,19.999996" orientation="18,0" id="guide4118"/>
        <sodipodi:guide position="2.0000011,1.9999962" orientation="0,18" id="guide4120"/>
        <sodipodi:guide position="20.000001,1.9999962" orientation="-18,0" id="guide4122"/>
        <sodipodi:guide position="20.000001,19.999996" orientation="0,-18" id="guide4124"/>
        <sodipodi:guide position="3.0000011,18.999996" orientation="16,0" id="guide4126"/>
        <sodipodi:guide position="3.0000011,2.9999962" orientation="0,16" id="guide4128"/>
        <sodipodi:guide position="19.000001,2.9999962" orientation="-16,0" id="guide4130"/>
        <sodipodi:guide position="19.000001,18.999996" orientation="0,-16" id="guide4132"/>
    </sodipodi:namedview>
    <metadata id="metadata4360">
        <rdf:RDF>
            <cc:Work rdf:about="">
                <dc:format>
                    image/svg+xml
                </dc:format>
                <dc:type rdf:resource="http://purl.org/dc/dcmitype/StillImage"/>
                <dc:title/>
            </cc:Work>
        </rdf:RDF>
    </metadata>
    <g inkscape:label="Capa 1" inkscape:groupmode="layer" id="layer1" transform="translate(-544.57141,-742.93359)">
        <path style="fill:#000000;fill-opacity:1;stroke:none;opacity:0.5" d="M 3 3 L 3 5 L 3 9 L 9 9 L 9 7 L 9 3 L 3 3 z M 12 3 L 12 4 L 18 4 L 18 10 L 19 10 L 19 4 L 19 3 L 12 3 z M 3 12 L 3 19 L 4 19 L 10 19 L 10 18 L 4 18 L 4 12 L 3 12 z M 14.998047 12.429688 L 14.998047 17.085938 L 13.376953 15.464844 L 12.669922 16.171875 L 14.791016 18.292969 L 15.498047 19 L 18.328125 16.171875 L 17.621094 15.464844 L 15.998047 17.085938 L 15.998047 12.429688 L 14.998047 12.429688 z " transform="translate(544.57141,742.93359)" id="rect3354"/>
    </g>
</svg>

<?xml version="1.0" encoding="UTF-8" standalone="no"?>
<!--Created with Inkscape (http://www.inkscape.org/)-->
<svg id="svg4355" xmlns:rdf="http://www.w3.org/1999/02/22-rdf-syntax-ns#" xmlns="http://www.w3.org/2000/svg" height="22" width="22" version="1.1" xmlns:cc="http://creativecommons.org/ns#" xmlns:dc="http://purl.org/dc/elements/1.1/">
 <defs id="defs4357">
 </defs>
 <metadata id="metadata4360">
  <rdf:RDF>
   <cc:Work rdf:about="">
    <dc:format>image/svg+xml</dc:format>
    <dc:type rdf:resource="http://purl.org/dc/dcmitype/StillImage"/>
    <dc:title/>
   </cc:Work>
  </rdf:RDF>
 </metadata>
 <g id="layer1" transform="translate(-544.57 -742.93)">
  <path id="rect3354" opacity=".5" d="m3 3v2 4h6v-2-4h-6zm9 0v1h6v6h1v-6-1h-7zm-9 9v7h1 6v-1h-6v-6h-1zm11.998 0.43v4.656l-1.621-1.621-0.707 0.707 2.121 2.121 0.707 0.707 2.83-2.828-0.707-0.707-1.623 1.621v-4.656h-1z" transform="translate(544.57 742.93)"/>
 </g>
</svg>
